flaticon/seo-and-analytics/cloud-computing-4.svg

<svg xmlns="http://www.w3.org/2000/svg" width="32" height="32" viewBox="0 0 24 24">
    <path d="M 22.921875 14.394531 L 20.765625 14.394531 L 20.765625 12.398438 C 20.765625 12.160156 20.605469 12 20.367188 12 L 12.378906 12 L 12.378906 10.402344 L 16.53125 10.402344 C 18.25 10.402344 19.566406 9.046875 19.566406 7.246094 C 19.566406 5.769531 18.6875 4.53125 17.410156 4.132812 C 17.210938 1.855469 15.335938 0.0195312 13.019531 0.0195312 C 11.621094 0.0195312 10.304688 0.699219 9.425781 1.777344 C 9.105469 1.65625 8.707031 1.617188 8.386719 1.617188 C 8.34375 1.617188 8.300781 1.617188 8.261719 1.621094 C 6.96875 1.679688 6.03125 2.65625 6.03125 3.933594 C 6.03125 3.9375 6.03125 3.941406 6.03125 3.949219 C 6.03125 3.957031 6.03125 3.964844 6.03125 3.972656 C 5.03125 4.574219 4.394531 5.691406 4.394531 6.929688 C 4.394531 8.84375 5.871094 10.402344 7.667969 10.402344 L 11.582031 10.402344 L 11.582031 12 L 3.59375 12 C 3.355469 12 3.195312 12.160156 3.195312 12.398438 L 3.195312 14.394531 L 1.078125 14.394531 C 0.480469 14.394531 0 14.875 0 15.472656 L 0 22.902344 C 0 23.5 0.480469 23.980469 1.078125 23.980469 L 6.109375 23.980469 C 6.707031 23.980469 7.1875 23.5 7.226562 22.941406 L 7.226562 15.472656 C 7.226562 14.875 6.75 14.394531 6.148438 14.394531 L 3.992188 14.394531 L 3.992188 12.796875 L 11.582031 12.796875 L 11.582031 14.394531 L 9.464844 14.394531 C 8.863281 14.394531 8.386719 14.875 8.386719 15.472656 L 8.386719 22.902344 C 8.386719 23.5 8.863281 23.980469 9.464844 23.980469 L 14.496094 23.980469 C 15.09375 23.980469 15.574219 23.5 15.613281 22.941406 L 15.613281 15.472656 C 15.613281 14.875 15.136719 14.394531 14.535156 14.394531 L 12.378906 14.394531 L 12.378906 12.796875 L 19.964844 12.796875 L 19.964844 14.394531 L 17.851562 14.394531 C 17.25 14.394531 16.773438 14.875 16.773438 15.472656 L 16.773438 22.902344 C 16.773438 23.5 17.25 23.980469 17.851562 23.980469 L 22.882812 23.980469 C 23.480469 23.980469 23.960938 23.5 24 22.941406 L 24 15.472656 C 24 14.875 23.519531 14.394531 22.921875 14.394531 Z M 5.191406 6.929688 C 5.191406 5.890625 5.710938 4.972656 6.589844 4.574219 L 6.828125 4.453125 L 6.828125 4.214844 C 6.828125 4.171875 6.828125 4.171875 6.828125 4.09375 L 6.828125 3.933594 C 6.828125 3.054688 7.46875 2.414062 8.386719 2.414062 C 9.265625 2.414062 9.984375 3.132812 9.984375 4.011719 C 9.984375 4.253906 10.144531 4.414062 10.382812 4.414062 C 10.621094 4.414062 10.78125 4.253906 10.78125 4.011719 C 10.78125 3.296875 10.492188 2.667969 10.019531 2.238281 C 10.722656 1.328125 11.867188 0.777344 12.976562 0.777344 C 14.976562 0.777344 16.574219 2.414062 16.613281 4.414062 L 16.613281 4.730469 L 16.933594 4.8125 C 18.011719 5.011719 18.769531 6.050781 18.769531 7.246094 C 18.769531 8.605469 17.808594 9.605469 16.53125 9.605469 L 7.667969 9.605469 C 6.308594 9.605469 5.191406 8.40625 5.191406 6.929688 Z M 6.429688 15.472656 L 6.429688 22.902344 C 6.429688 23.0625 6.308594 23.179688 6.148438 23.179688 L 1.078125 23.179688 C 0.917969 23.179688 0.796875 23.0625 0.796875 22.941406 L 0.796875 15.472656 C 0.796875 15.316406 0.917969 15.195312 1.078125 15.195312 L 6.148438 15.195312 C 6.308594 15.195312 6.429688 15.316406 6.429688 15.472656 Z M 14.816406 15.472656 L 14.816406 22.941406 C 14.816406 23.101562 14.695312 23.222656 14.535156 23.222656 L 9.464844 23.222656 C 9.304688 23.222656 9.183594 23.101562 9.183594 22.941406 L 9.183594 15.472656 C 9.183594 15.316406 9.304688 15.195312 9.464844 15.195312 L 14.535156 15.195312 C 14.695312 15.195312 14.816406 15.316406 14.816406 15.472656 Z M 23.203125 22.941406 C 23.203125 23.101562 23.082031 23.222656 22.921875 23.222656 L 17.851562 23.222656 C 17.691406 23.222656 17.570312 23.101562 17.570312 22.941406 L 17.570312 15.472656 C 17.570312 15.316406 17.691406 15.195312 17.851562 15.195312 L 22.921875 15.195312 C 23.082031 15.195312 23.203125 15.316406 23.203125 15.472656 Z M 23.203125 22.941406"/>
    <path d="M1.996094 19.585938C2.234375 19.585938 2.394531 19.425781 2.394531 19.1875 2.394531 18.949219 2.234375 18.789062 1.996094 18.789062 1.757812 18.789062 1.597656 18.949219 1.597656 19.1875 1.597656 19.425781 1.757812 19.585938 1.996094 19.585938zM3.992188 19.1875C3.992188 18.949219 3.832031 18.789062 3.59375 18.789062 3.355469 18.789062 3.195312 18.949219 3.195312 19.1875 3.195312 19.425781 3.355469 19.585938 3.59375 19.585938 3.832031 19.585938 3.992188 19.425781 3.992188 19.1875zM5.191406 18.789062C4.953125 18.789062 4.792969 18.949219 4.792969 19.1875 4.792969 19.425781 4.953125 19.585938 5.191406 19.585938 5.429688 19.585938 5.589844 19.425781 5.589844 19.1875 5.589844 18.949219 5.429688 18.789062 5.191406 18.789062zM10.382812 18.390625C10.621094 18.390625 10.78125 18.230469 10.78125 17.988281 10.78125 17.75 10.621094 17.589844 10.382812 17.589844 10.144531 17.589844 9.984375 17.75 9.984375 17.988281 9.984375 18.230469 10.144531 18.390625 10.382812 18.390625zM11.582031 17.988281C11.582031 18.230469 11.742188 18.390625 11.980469 18.390625 12.21875 18.390625 12.378906 18.230469 12.378906 17.988281 12.378906 17.75 12.21875 17.589844 11.980469 17.589844 11.742188 17.589844 11.582031 17.75 11.582031 17.988281zM11.179688 17.191406C11.421875 17.191406 11.582031 17.03125 11.582031 16.792969 11.582031 16.550781 11.421875 16.394531 11.179688 16.394531 10.941406 16.394531 10.78125 16.550781 10.78125 16.792969 10.78125 17.03125 10.941406 17.191406 11.179688 17.191406zM12.777344 17.191406C13.019531 17.191406 13.179688 17.03125 13.179688 16.792969 13.179688 16.550781 13.019531 16.394531 12.777344 16.394531 12.539062 16.394531 12.378906 16.550781 12.378906 16.792969 12.378906 17.03125 12.539062 17.191406 12.777344 17.191406zM13.578125 18.390625C13.816406 18.390625 13.976562 18.230469 13.976562 17.988281 13.976562 17.75 13.816406 17.589844 13.578125 17.589844 13.335938 17.589844 13.179688 17.75 13.179688 17.988281 13.179688 18.230469 13.335938 18.390625 13.578125 18.390625zM1.597656 16.792969C1.597656 17.03125 1.757812 17.191406 1.996094 17.191406L5.191406 17.191406C5.429688 17.191406 5.589844 17.03125 5.589844 16.792969 5.589844 16.550781 5.429688 16.394531 5.191406 16.394531L1.996094 16.394531C1.757812 16.394531 1.597656 16.550781 1.597656 16.792969zM5.191406 21.183594L1.996094 21.183594C1.757812 21.183594 1.597656 21.34375 1.597656 21.585938 1.597656 21.824219 1.757812 21.984375 1.996094 21.984375L5.191406 21.984375C5.429688 21.984375 5.589844 21.824219 5.589844 21.585938 5.589844 21.34375 5.429688 21.183594 5.191406 21.183594zM18.769531 19.585938C19.007812 19.585938 19.167969 19.425781 19.167969 19.1875 19.167969 18.949219 19.007812 18.789062 18.769531 18.789062 18.527344 18.789062 18.371094 18.949219 18.371094 19.1875 18.371094 19.425781 18.527344 19.585938 18.769531 19.585938zM20.765625 19.1875C20.765625 18.949219 20.605469 18.789062 20.367188 18.789062 20.125 18.789062 19.964844 18.949219 19.964844 19.1875 19.964844 19.425781 20.125 19.585938 20.367188 19.585938 20.605469 19.585938 20.765625 19.425781 20.765625 19.1875zM21.964844 18.789062C21.722656 18.789062 21.5625 18.949219 21.5625 19.1875 21.5625 19.425781 21.722656 19.585938 21.964844 19.585938 22.203125 19.585938 22.363281 19.425781 22.363281 19.1875 22.363281 18.949219 22.203125 18.789062 21.964844 18.789062zM21.964844 16.394531L18.769531 16.394531C18.527344 16.394531 18.371094 16.550781 18.371094 16.792969 18.371094 17.03125 18.527344 17.191406 18.769531 17.191406L21.964844 17.191406C22.203125 17.191406 22.363281 17.03125 22.363281 16.792969 22.363281 16.550781 22.203125 16.394531 21.964844 16.394531zM21.964844 21.183594L18.769531 21.183594C18.527344 21.183594 18.371094 21.34375 18.371094 21.585938 18.371094 21.824219 18.527344 21.984375 18.769531 21.984375L21.964844 21.984375C22.203125 21.984375 22.363281 21.824219 22.363281 21.585938 22.363281 21.34375 22.203125 21.183594 21.964844 21.183594zM13.578125 19.585938L10.382812 19.585938C10.144531 19.585938 9.984375 19.746094 9.984375 19.988281 9.984375 20.226562 10.144531 20.386719 10.382812 20.386719L13.578125 20.386719C13.816406 20.386719 13.976562 20.226562 13.976562 19.988281 13.976562 19.746094 13.816406 19.585938 13.578125 19.585938zM13.578125 21.183594L12.378906 21.183594C12.140625 21.183594 11.980469 21.34375 11.980469 21.585938 11.980469 21.824219 12.140625 21.984375 12.378906 21.984375L13.578125 21.984375C13.816406 21.984375 13.976562 21.824219 13.976562 21.585938 13.976562 21.34375 13.816406 21.183594 13.578125 21.183594zM10.78125 21.183594L10.382812 21.183594C10.144531 21.183594 9.984375 21.34375 9.984375 21.585938 9.984375 21.824219 10.144531 21.984375 10.382812 21.984375L10.78125 21.984375C11.023438 21.984375 11.179688 21.824219 11.179688 21.585938 11.179688 21.34375 11.023438 21.183594 10.78125 21.183594zM10.78125 21.183594"/>
</svg>

<svg xmlns="http://www.w3.org/2000/svg" width="32" height="32" viewBox="0 0 24 24">
    <path d="M22.922 14.395h-2.156v-1.997c0-.238-.16-.398-.399-.398H12.38v-1.598h4.152c1.719 0 3.035-1.355 3.035-3.156 0-1.476-.878-2.715-2.156-3.113C17.21 1.855 15.336.02 13.02.02c-1.399 0-2.715.68-3.594 1.757-.32-.12-.719-.16-1.04-.16-.042 0-.085 0-.124.004-1.293.059-2.23 1.035-2.23 2.313v.039c-1 .601-1.637 1.718-1.637 2.957 0 1.914 1.476 3.472 3.273 3.472h3.914V12H3.594c-.239 0-.399.16-.399.398v1.997H1.078c-.598 0-1.078.48-1.078 1.078v7.43c0 .597.48 1.077 1.078 1.077H6.11a1.13 1.13 0 0 0 1.118-1.039v-7.468c0-.598-.477-1.078-1.079-1.078H3.992v-1.598h7.59v1.598H9.465c-.602 0-1.078.48-1.078 1.078v7.43c0 .597.476 1.077 1.078 1.077h5.031a1.13 1.13 0 0 0 1.117-1.039v-7.468c0-.598-.476-1.078-1.078-1.078H12.38v-1.598h7.586v1.598h-2.113c-.602 0-1.079.48-1.079 1.078v7.43c0 .597.477 1.077 1.079 1.077h5.03A1.13 1.13 0 0 0 24 22.941v-7.468c0-.598-.48-1.078-1.078-1.078zM5.192 6.93c0-1.04.519-1.957 1.398-2.356l.238-.12v-.24-.28c0-.88.64-1.52 1.559-1.52.879 0 1.597.719 1.597 1.598 0 .242.16.402.399.402.238 0 .398-.16.398-.402 0-.715-.289-1.344-.761-1.774a3.827 3.827 0 0 1 2.957-1.46c2 0 3.597 1.636 3.636 3.636v.316l.32.082c1.079.2 1.837 1.239 1.837 2.434 0 1.36-.961 2.36-2.239 2.36H7.668c-1.36 0-2.477-1.2-2.477-2.676zm1.238 8.543v7.43c0 .16-.121.277-.282.277h-5.07c-.16 0-.281-.117-.281-.239v-7.468c0-.157.121-.278.281-.278h5.07c.16 0 .282.121.282.278zm8.386 0v7.468c0 .16-.12.282-.28.282H9.464a.275.275 0 0 1-.281-.282v-7.468c0-.157.12-.278.28-.278h5.071c.16 0 .281.121.281.278zm8.387 7.468c0 .16-.121.282-.281.282h-5.07a.275.275 0 0 1-.282-.282v-7.468c0-.157.121-.278.282-.278h5.07c.16 0 .281.121.281.278zm0 0"/>
    <path d="M1.996 19.586c.238 0 .399-.16.399-.398 0-.239-.16-.399-.399-.399-.238 0-.398.16-.398.398 0 .239.16.399.398.399zm0 0M3.992 19.188c0-.239-.16-.399-.398-.399-.239 0-.399.16-.399.398 0 .239.16.399.399.399.238 0 .398-.16.398-.398zm0 0M5.191 18.79c-.238 0-.398.16-.398.398 0 .238.16.398.398.398.239 0 .399-.16.399-.398 0-.239-.16-.399-.399-.399zm0 0M10.383 18.39c.238 0 .398-.16.398-.402 0-.238-.16-.398-.398-.398-.238 0-.399.16-.399.398 0 .242.16.403.399.403zm0 0M11.582 17.988c0 .242.16.403.398.403.239 0 .399-.16.399-.403 0-.238-.16-.398-.399-.398-.238 0-.398.16-.398.398zm0 0M11.18 17.191c.242 0 .402-.16.402-.398 0-.242-.16-.398-.402-.398-.239 0-.399.156-.399.398 0 .238.16.398.399.398zm0 0M12.777 17.191c.243 0 .403-.16.403-.398 0-.242-.16-.398-.403-.398-.238 0-.398.156-.398.398 0 .238.16.398.398.398zm0 0M13.578 18.39c.238 0 .399-.16.399-.402 0-.238-.16-.398-.399-.398-.242 0-.398.16-.398.398 0 .242.156.403.398.403zm0 0M1.598 16.793c0 .238.16.398.398.398h3.195c.239 0 .399-.16.399-.398 0-.242-.16-.398-.399-.398H1.996c-.238 0-.398.156-.398.398zm0 0M5.191 21.184H1.996c-.238 0-.398.16-.398.402 0 .238.16.398.398.398h3.195c.239 0 .399-.16.399-.398 0-.242-.16-.402-.399-.402zm0 0M18.77 19.586c.238 0 .398-.16.398-.398 0-.239-.16-.399-.398-.399-.243 0-.399.16-.399.398 0 .239.156.399.399.399zm0 0M20.766 19.188c0-.239-.16-.399-.399-.399-.242 0-.402.16-.402.398 0 .239.16.399.402.399.238 0 .399-.16.399-.398zm0 0M21.965 18.79c-.242 0-.402.16-.402.398 0 .238.16.398.402.398.238 0 .398-.16.398-.398 0-.239-.16-.399-.398-.399zm0 0M21.965 16.395H18.77c-.243 0-.399.156-.399.398 0 .238.156.398.399.398h3.195c.238 0 .398-.16.398-.398 0-.242-.16-.398-.398-.398zm0 0M21.965 21.184H18.77c-.243 0-.399.16-.399.402 0 .238.156.398.399.398h3.195c.238 0 .398-.16.398-.398 0-.242-.16-.402-.398-.402zm0 0M13.578 19.586h-3.195c-.238 0-.399.16-.399.402 0 .239.16.399.399.399h3.195c.238 0 .399-.16.399-.399 0-.242-.16-.402-.399-.402zm0 0M13.578 21.184h-1.2c-.237 0-.398.16-.398.402 0 .238.16.398.399.398h1.2c.237 0 .398-.16.398-.398 0-.242-.16-.402-.399-.402zm0 0M10.781 21.184h-.398c-.238 0-.399.16-.399.402 0 .238.16.398.399.398h.398c.242 0 .399-.16.399-.398 0-.242-.157-.402-.399-.402zm0 0"/>
</svg>
